X: 352
T: Gillian's Reel
B: jims roots
M:4/4
L:1/8
R: Reel
Q: 1/4=100
K:A
V:1 
%S:James Hunter
cB||"A"A2 cA "E"B2 dB|"A"c2 ec "E"dBGB|"A"A2 ce "D"fgaf|"E"edcB AGFG|
   "A"AEAc "E"BEBd|"A"cAce "E"dBGB|"A"(3AAA ce "D"fgaf|"E"edcB "A"A2:|
|:"A"a2 fa "C#m"g2 eg|"D"f2 df "A"ecBA|"D"a2 fa "B7"gaba|"E"gfe^d e2 fg|
"A"agfa "C#m"gfeg|"D"fedf "A"edcB|(3AAA ce "D"fgaf|[1 "E"ecdB "A"Aefg:|
V:2 "E"ecdB "A"A2|
% abcbook-tune_id 6298c245750dce2493eec0c8


% abcbook-boost 0
% abcbook-tablature 
% abcbook-transpose 
% abcbook-lastupdated 1654178373156
% abcbook-soundfonts 
% abcbook-repeats 1


